;FLAVOR:Marlin
;TIME:543
;Filament used: 0.342007m
;Layer height: 0.2
;MINX:93.4
;MINY:93.4
;MINZ:0.2
;MAXX:126.6
;MAXY:126.6
;MAXZ:2
;Generated with Cura_SteamEngine 4.2.1
M140 S60
M105
M190 S60
M104 S200
M105
M109 S200
M82 ;absolute extrusion mode
M201 X500.00 Y500.00 Z100.00 E5000.00 ;Setup machine max acceleration
M203 X500.00 Y500.00 Z10.00 E50.00 ;Setup machine max feedrate
M204 P500.00 R1000.00 T500.00 ;Setup Print/Retract/Travel acceleration
M205 X8.00 Y8.00 Z0.40 E5.00 ;Setup Jerk
M220 S100 ;Reset Feedrate
M221 S100 ;Reset Flowrate

G28 ;Home

G92 E0 ;Reset Extruder
G1 Z2.0 F3000 ;Move Z Axis up
G1 X10.1 Y20 Z0.28 F5000.0 ;Move to start position
G1 X10.1 Y200.0 Z0.28 F1500.0 E15 ;Draw the first line
G1 X10.4 Y200.0 Z0.28 F5000.0 ;Move to side a little
G1 X10.4 Y20 Z0.28 F1500.0 E30 ;Draw the second line
G92 E0 ;Reset Extruder
G1 Z2.0 F3000 ;Move Z Axis up

G92 E0
G92 E0
G1 F2700 E-5
;LAYER_COUNT:10
;LAYER:0
M107
G0 F6000 X94.809 Y94.424 Z0.2
;TYPE:SKIRT
G1 F2700 E0
G1 F1200 X95.265 Y94.078 E0.02094
G1 X95.764 Y93.799 E0.04186
G1 X96.298 Y93.592 E0.06281
G1 X96.855 Y93.461 E0.08375
G1 X97.394 Y93.411 E0.10355
G1 X97.715 Y93.402 E0.1153
G1 X97.83 Y93.4 E0.11951
G1 X121.852 Y93.4 E0.99838
G1 X122.55 Y93.41 E1.02392
G1 X123.12 Y93.459 E1.04485
G1 X123.678 Y93.586 E1.06579
G1 X124.213 Y93.789 E1.08672
G1 X124.714 Y94.065 E1.10765
G1 X125.173 Y94.408 E1.12861
G1 X125.578 Y94.812 E1.14954
G1 X125.924 Y95.268 E1.17049
G1 X126.203 Y95.768 E1.19143
G1 X126.409 Y96.302 E1.21237
G1 X126.539 Y96.86 E1.23334
G1 X126.589 Y97.395 E1.253
G1 X126.598 Y97.715 E1.26471
G1 X126.6 Y97.83 E1.26892
G1 X126.6 Y121.815 E2.14643
G1 X126.591 Y122.542 E2.17303
G1 X126.544 Y123.112 E2.19396
G1 X126.418 Y123.671 E2.21492
G1 X126.215 Y124.206 E2.23586
G1 X125.94 Y124.708 E2.2568
G1 X125.598 Y125.166 E2.27771
G1 X125.195 Y125.573 E2.29867
G1 X124.739 Y125.92 E2.31963
G1 X124.24 Y126.199 E2.34055
G1 X123.706 Y126.407 E2.36152
G1 X123.149 Y126.538 E2.38245
G1 X122.606 Y126.589 E2.4024
G1 X122.285 Y126.598 E2.41415
G1 X122.17 Y126.6 E2.41836
G1 X98.154 Y126.6 E3.29701
G1 X97.456 Y126.591 E3.32255
G1 X96.886 Y126.543 E3.34348
G1 X96.327 Y126.417 E3.36445
G1 X95.792 Y126.214 E3.38538
G1 X95.29 Y125.939 E3.40632
G1 X94.832 Y125.596 E3.42726
G1 X94.426 Y125.193 E3.44819
G1 X94.079 Y124.738 E3.46912
G1 X93.8 Y124.238 E3.49007
G1 X93.593 Y123.704 E3.51102
G1 X93.462 Y123.147 E3.53196
G1 X93.41 Y122.602 E3.55199
G1 X93.401 Y122.269 E3.56418
G1 X93.4 Y122.158 E3.56824
G1 X93.4 Y98.119 E4.44773
G1 X93.409 Y97.454 E4.47206
G1 X93.457 Y96.883 E4.49303
G1 X93.584 Y96.325 E4.51397
G1 X93.787 Y95.79 E4.5349
G1 X94.063 Y95.288 E4.55586
G1 X94.405 Y94.83 E4.57677
G1 X94.809 Y94.424 E4.59773
G0 F6000 X95.236 Y94.64
G1 F1200 X95.684 Y94.337 E4.61751
G1 X96.171 Y94.102 E4.6373
G1 X96.688 Y93.942 E4.6571
G1 X97.406 Y93.85 E4.68358
G1 X97.727 Y93.841 E4.69533
G1 X97.83 Y93.84 E4.6991
G1 X121.845 Y93.84 E5.57772
G1 X122.543 Y93.85 E5.60326
G1 X123.082 Y93.898 E5.62305
G1 X123.608 Y94.025 E5.64285
G1 X124.109 Y94.227 E5.66261
G1 X124.575 Y94.501 E5.68239
G1 X124.996 Y94.841 E5.70219
G1 X125.362 Y95.239 E5.72197
G1 X125.665 Y95.687 E5.74176
G1 X125.899 Y96.175 E5.76156
G1 X126.058 Y96.691 E5.78131
G1 X126.15 Y97.407 E5.80773
G1 X126.159 Y97.727 E5.81944
G1 X126.16 Y97.83 E5.82321
G1 X126.16 Y121.809 E6.70051
G1 X126.151 Y122.536 E6.72711
G1 X126.104 Y123.075 E6.7469
G1 X125.979 Y123.601 E6.76668
G1 X125.777 Y124.103 E6.78648
G1 X125.504 Y124.569 E6.80624
G1 X125.165 Y124.991 E6.82604
G1 X124.767 Y125.357 E6.84582
G1 X124.32 Y125.661 E6.8656
G1 X123.833 Y125.896 E6.88539
G1 X123.317 Y126.057 E6.90516
G1 X122.594 Y126.15 E6.93183
G1 X122.273 Y126.159 E6.94358
G1 X122.17 Y126.16 E6.94735
G1 X98.16 Y126.16 E7.82578
G1 X97.462 Y126.151 E7.85132
G1 X96.923 Y126.104 E7.87112
G1 X96.397 Y125.978 E7.8909
G1 X95.896 Y125.776 E7.91067
G1 X95.429 Y125.503 E7.93046
G1 X95.008 Y125.163 E7.95026
G1 X94.642 Y124.766 E7.97001
G1 X94.338 Y124.318 E7.98982
G1 X94.103 Y123.831 E8.0096
G1 X93.943 Y123.315 E8.02937
G1 X93.85 Y122.59 E8.05611
G1 X93.841 Y122.257 E8.0683
G1 X93.84 Y122.158 E8.07192
G1 X93.84 Y98.124 E8.95123
G1 X93.849 Y97.459 E8.97557
G1 X93.897 Y96.921 E8.99533
G1 X94.023 Y96.395 E9.01512
G1 X94.225 Y95.893 E9.03491
G1 X94.499 Y95.427 E9.05469
G1 X94.838 Y95.006 E9.07447
G1 X95.236 Y94.64 E9.09425
G0 F6000 X95.27 Y95.195
G1 F1200 X95.661 Y94.872 E9.1128
G1 X96.098 Y94.615 E9.13135
G1 X96.57 Y94.429 E9.14991
G1 X97.065 Y94.32 E9.16846
G1 X97.419 Y94.29 E9.18145
G1 X97.74 Y94.281 E9.1932
G1 X97.83 Y94.28 E9.1965
G1 X121.839 Y94.28 E10.07489
G1 X122.537 Y94.29 E10.10043
G1 X123.042 Y94.338 E10.11899
G1 X123.533 Y94.463 E10.13753
G1 X123.999 Y94.665 E10.15611
G1 X124.427 Y94.937 E10.17466
G1 X124.807 Y95.273 E10.19322
G1 X125.129 Y95.664 E10.21175
G1 X125.386 Y96.101 E10.2303
G1 X125.572 Y96.573 E10.24886
G1 X125.681 Y97.069 E10.26744
G1 X125.71 Y97.419 E10.28029
G1 X125.719 Y97.739 E10.292
G1 X125.72 Y97.83 E10.29533
G1 X125.72 Y121.804 E11.17245
G1 X125.711 Y122.531 E11.19905
G1 X125.665 Y123.036 E11.2176
G1 X125.54 Y123.527 E11.23614
G1 X125.339 Y123.993 E11.25471
G1 X125.068 Y124.422 E11.27327
G1 X124.733 Y124.802 E11.29181
G1 X124.342 Y125.126 E11.31038
G1 X123.905 Y125.384 E11.32895
G1 X123.434 Y125.57 E11.34748
G1 X122.939 Y125.68 E11.36603
G1 X122.581 Y125.71 E11.37917
G1 X122.26 Y125.719 E11.39092
G1 X122.17 Y125.72 E11.39422
G1 X98.165 Y125.72 E12.27247
G1 X97.467 Y125.711 E12.29801
G1 X96.962 Y125.664 E12.31656
G1 X96.471 Y125.539 E12.3351
G1 X96.005 Y125.338 E12.35367
G1 X95.577 Y125.067 E12.3722
G1 X95.196 Y124.732 E12.39076
G1 X94.873 Y124.341 E12.40932
G1 X94.616 Y123.904 E12.42786
G1 X94.43 Y123.432 E12.44642
G1 X94.32 Y122.937 E12.46498
G1 X94.29 Y122.578 E12.47816
G1 X94.281 Y122.245 E12.49034
G1 X94.28 Y122.158 E12.49353
G1 X94.28 Y98.13 E13.37262
G1 X94.289 Y97.465 E13.39695
G1 X94.336 Y96.96 E13.41551
G1 X94.462 Y96.469 E13.43405
G1 X94.663 Y96.003 E13.45262
G1 X94.934 Y95.575 E13.47115
G1 X95.27 Y95.195 E13.48971
G1 F2700 E8.48971
;MESH:ggggggggggg v0.stl
G0 F6000 X96.873 Y99.598
G0 X103.11 Y116.731
G0 X103.131 Y116.791
G0 X103.153 Y116.847
G0 X101.4 Y118.6
;TYPE:WALL-INNER
G1 F2700 E13.48971
G1 F1200 X118.6 Y118.6 E14.11899
G1 X118.6 Y101.4 E14.74828
G1 X101.4 Y101.4 E15.37756
G1 X101.4 Y118.6 E16.00684
G0 F6000 X98.6 Y121.4
G1 F1200 X98.6 Y98.6 E16.841
G1 X121.4 Y98.6 E17.67517
G1 X121.4 Y121.4 E18.50933
G1 X98.6 Y121.4 E19.3435
G0 F6000 X98.16 Y121.84
G1 F1200 X98.16 Y98.16 E20.20986
G1 X121.84 Y98.16 E21.07622
G1 X121.84 Y121.84 E21.94258
G1 X98.16 Y121.84 E22.80894
G1 F2700 E17.80894
G0 F6000 X96.835 Y121.84
G0 X96.905 Y121.783
G0 X103.093 Y116.893
G0 X103.153 Y116.847
G0 X101.84 Y118.16
G1 F2700 E22.80894
G1 F1200 X118.16 Y118.16 E23.40602
G1 X118.16 Y101.84 E24.00311
G1 X101.84 Y101.84 E24.60019
G1 X101.84 Y118.16 E25.19728
G0 F6000 X102.28 Y117.72
;TYPE:WALL-OUTER
G1 F1200 X117.72 Y117.72 E25.76217
G1 X117.72 Y102.28 E26.32706
G1 X102.28 Y102.28 E26.89195
G1 X102.28 Y117.72 E27.45684
G1 F2700 E22.45684
G0 F6000 X103.153 Y116.847
G0 X103.094 Y116.896
G0 X96.905 Y122.219
G0 X96.835 Y122.28
G0 X97.72 Y122.28
G1 F2700 E27.45684
G1 F1200 X97.72 Y97.72 E28.3554
G1 X122.28 Y97.72 E29.25395
G1 X122.28 Y122.28 E30.15251
G1 X97.72 Y122.28 E31.05106
G0 F6000 X99.03 Y120.97
;TYPE:SKIN
G1 F1200 X99.03 Y99.03 E31.85376
G1 X120.97 Y99.03 E32.65646
G1 X120.97 Y120.97 E33.45916
G1 X99.03 Y120.97 E34.26186
G0 F6000 X100.97 Y119.03
G1 F1200 X119.03 Y119.03 E34.92261
G1 X119.03 Y100.97 E35.58336
G1 X100.97 Y100.97 E36.2441
G1 X100.97 Y119.03 E36.90485
G0 F6000 X99.637 Y120.793
G1 F1200 X99.205 Y120.362 E36.92717
G0 F6000 X99.205 Y119.74
G1 F1200 X100.259 Y120.793 E36.98168
G0 F6000 X100.881 Y120.793
G1 F1200 X99.205 Y119.117 E37.0684
G0 F6000 X99.205 Y118.495
G1 F1200 X101.503 Y120.793 E37.1873
G0 F6000 X102.126 Y120.793
G1 F1200 X99.205 Y117.873 E37.33841
G0 F6000 X99.205 Y117.251
G1 F1200 X100.793 Y118.839 E37.42057
G0 F6000 X101.16 Y119.205
G1 F1200 X102.748 Y120.793 E37.50274
G0 F6000 X103.37 Y120.793
G1 F1200 X101.782 Y119.205 E37.5849
G0 F6000 X102.404 Y119.205
G1 F1200 X103.992 Y120.793 E37.66706
G0 F6000 X104.615 Y120.793
G1 F1200 X103.026 Y119.205 E37.74925
G0 F6000 X103.649 Y119.205
G1 F1200 X105.237 Y120.793 E37.83142
G0 F6000 X105.859 Y120.793
G1 F1200 X104.271 Y119.205 E37.91358
G0 F6000 X104.893 Y119.205
G1 F1200 X106.481 Y120.793 E37.99575
G0 F6000 X107.104 Y120.793
G1 F1200 X105.515 Y119.205 E38.07794
G0 F6000 X106.138 Y119.205
G1 F1200 X107.726 Y120.793 E38.1601
G0 F6000 X108.348 Y120.793
G1 F1200 X106.76 Y119.205 E38.24227
G0 F6000 X107.382 Y119.205
G1 F1200 X108.97 Y120.793 E38.32443
G0 F6000 X109.593 Y120.793
G1 F1200 X108.004 Y119.205 E38.40662
G0 F6000 X108.627 Y119.205
G1 F1200 X110.215 Y120.793 E38.48878
G0 F6000 X110.837 Y120.793
G1 F1200 X109.249 Y119.205 E38.57095
G0 F6000 X109.871 Y119.205
G1 F1200 X111.459 Y120.793 E38.65311
G0 F6000 X112.082 Y120.793
G1 F1200 X110.493 Y119.205 E38.7353
G0 F6000 X111.116 Y119.205
G1 F1200 X112.704 Y120.793 E38.81747
G0 F6000 X113.326 Y120.793
G1 F1200 X111.738 Y119.205 E38.89963
G0 F6000 X112.36 Y119.205
G1 F1200 X113.948 Y120.793 E38.98179
G0 F6000 X114.571 Y120.793
G1 F1200 X112.982 Y119.205 E39.06398
G0 F6000 X113.605 Y119.205
G1 F1200 X115.193 Y120.793 E39.14615
G0 F6000 X115.815 Y120.793
G1 F1200 X114.227 Y119.205 E39.22831
G0 F6000 X114.849 Y119.205
G1 F1200 X116.437 Y120.793 E39.31048
G0 F6000 X117.06 Y120.793
G1 F1200 X115.471 Y119.205 E39.39267
G0 F6000 X116.094 Y119.205
G1 F1200 X117.682 Y120.793 E39.47483
G0 F6000 X118.304 Y120.793
G1 F1200 X116.716 Y119.205 E39.55699
G0 F6000 X117.338 Y119.205
G1 F1200 X118.926 Y120.793 E39.63916
G0 F6000 X119.549 Y120.793
G1 F1200 X117.96 Y119.205 E39.72135
G0 F6000 X118.583 Y119.205
G1 F1200 X120.171 Y120.793 E39.80351
G0 F6000 X120.793 Y120.793
G1 F1200 X119.205 Y119.205 E39.88568
G0 F6000 X119.205 Y118.583
G1 F1200 X120.793 Y120.171 E39.96784
G0 F6000 X120.793 Y119.549
G1 F1200 X119.205 Y117.96 E40.05003
G0 F6000 X119.205 Y117.338
G1 F1200 X120.793 Y118.926 E40.1322
G0 F6000 X120.793 Y118.304
G1 F1200 X119.205 Y116.716 E40.21436
G0 F6000 X119.205 Y116.094
G1 F1200 X120.793 Y117.682 E40.29652
G0 F6000 X120.793 Y117.06
G1 F1200 X119.205 Y115.471 E40.37871
G0 F6000 X119.205 Y114.849
G1 F1200 X120.793 Y116.437 E40.46088
G0 F6000 X120.793 Y115.815
G1 F1200 X119.205 Y114.227 E40.54304
G0 F6000 X119.205 Y113.605
G1 F1200 X120.793 Y115.193 E40.62521
G0 F6000 X120.793 Y114.571
G1 F1200 X119.205 Y112.982 E40.7074
G0 F6000 X119.205 Y112.36
G1 F1200 X120.793 Y113.948 E40.78956
G0 F6000 X120.793 Y113.326
G1 F1200 X119.205 Y111.738 E40.87172
G0 F6000 X119.205 Y111.116
G1 F1200 X120.793 Y112.704 E40.95389
G0 F6000 X120.793 Y112.082
G1 F1200 X119.205 Y110.493 E41.03608
G0 F6000 X119.205 Y109.871
G1 F1200 X120.793 Y111.459 E41.11824
G0 F6000 X120.793 Y110.837
G1 F1200 X119.205 Y109.249 E41.20041
G0 F6000 X119.205 Y108.627
G1 F1200 X120.793 Y110.215 E41.28257
G0 F6000 X120.793 Y109.593
G1 F1200 X119.205 Y108.004 E41.36476
G0 F6000 X119.205 Y107.382
G1 F1200 X120.793 Y108.97 E41.44692
G0 F6000 X120.793 Y108.348
G1 F1200 X119.205 Y106.76 E41.52909
G0 F6000 X119.205 Y106.138
G1 F1200 X120.793 Y107.726 E41.61125
G0 F6000 X120.793 Y107.104
G1 F1200 X119.205 Y105.515 E41.69344
G0 F6000 X119.205 Y104.893
G1 F1200 X120.793 Y106.481 E41.77561
G0 F6000 X120.793 Y105.859
G1 F1200 X119.205 Y104.271 E41.85777
G0 F6000 X119.205 Y103.649
G1 F1200 X120.793 Y105.237 E41.93994
G0 F6000 X120.793 Y104.615
G1 F1200 X119.205 Y103.026 E42.02213
G0 F6000 X119.205 Y102.404
G1 F1200 X120.793 Y103.992 E42.10429
G0 F6000 X120.793 Y103.37
G1 F1200 X119.205 Y101.782 E42.18645
G0 F6000 X119.205 Y101.16
G1 F1200 X120.793 Y102.748 E42.26862
G0 F6000 X120.793 Y102.126
G1 F1200 X117.873 Y99.205 E42.41973
G0 F6000 X117.251 Y99.205
G1 F1200 X118.839 Y100.793 E42.50189
G0 F6000 X118.216 Y100.793
G1 F1200 X116.628 Y99.205 E42.58405
G0 F6000 X116.006 Y99.205
G1 F1200 X117.594 Y100.793 E42.66622
G0 F6000 X116.972 Y100.793
G1 F1200 X115.384 Y99.205 E42.74838
G0 F6000 X114.762 Y99.205
G1 F1200 X116.35 Y100.793 E42.83055
G0 F6000 X115.727 Y100.793
G1 F1200 X114.139 Y99.205 E42.91271
G0 F6000 X113.517 Y99.205
G1 F1200 X115.105 Y100.793 E42.99487
G0 F6000 X114.483 Y100.793
G1 F1200 X112.895 Y99.205 E43.07704
G0 F6000 X112.273 Y99.205
G1 F1200 X113.861 Y100.793 E43.1592
G0 F6000 X113.238 Y100.793
G1 F1200 X111.65 Y99.205 E43.24137
G0 F6000 X111.028 Y99.205
G1 F1200 X112.616 Y100.793 E43.32353
G0 F6000 X111.994 Y100.793
G1 F1200 X110.406 Y99.205 E43.4057
G0 F6000 X109.783 Y99.205
G1 F1200 X111.372 Y100.793 E43.48789
G0 F6000 X110.749 Y100.793
G1 F1200 X109.161 Y99.205 E43.57005
G0 F6000 X108.539 Y99.205
G1 F1200 X110.127 Y100.793 E43.65221
G0 F6000 X109.505 Y100.793
G1 F1200 X107.917 Y99.205 E43.73438
G0 F6000 X107.294 Y99.205
G1 F1200 X108.883 Y100.793 E43.81657
G0 F6000 X108.26 Y100.793
G1 F1200 X106.672 Y99.205 E43.89873
G0 F6000 X106.05 Y99.205
G1 F1200 X107.638 Y100.793 E43.9809
G0 F6000 X107.016 Y100.793
G1 F1200 X105.428 Y99.205 E44.06306
G0 F6000 X104.805 Y99.205
G1 F1200 X106.394 Y100.793 E44.14525
G0 F6000 X105.771 Y100.793
G1 F1200 X104.183 Y99.205 E44.22741
G0 F6000 X103.561 Y99.205
G1 F1200 X105.149 Y100.793 E44.30958
G0 F6000 X104.527 Y100.793
G1 F1200 X102.939 Y99.205 E44.39174
G0 F6000 X102.316 Y99.205
G1 F1200 X103.905 Y100.793 E44.47393
G0 F6000 X103.282 Y100.793
G1 F1200 X101.694 Y99.205 E44.5561
G0 F6000 X101.072 Y99.205
G1 F1200 X102.66 Y100.793 E44.63826
G0 F6000 X102.038 Y100.793
G1 F1200 X100.45 Y99.205 E44.72042
G0 F6000 X99.827 Y99.205
G1 F1200 X101.416 Y100.793 E44.80261
G0 F6000 X100.793 Y100.793
G1 F1200 X99.205 Y99.205 E44.88478
G0 F6000 X99.205 Y99.827
G1 F1200 X100.793 Y101.416 E44.96697
G0 F6000 X100.793 Y102.038
G1 F1200 X99.205 Y100.45 E45.04913
G0 F6000 X99.205 Y101.072
G1 F1200 X100.793 Y102.66 E45.1313
G0 F6000 X100.793 Y103.282
G1 F1200 X99.205 Y101.694 E45.21346
G0 F6000 X99.205 Y102.316
G1 F1200 X100.793 Y103.905 E45.29565
G0 F6000 X100.793 Y104.527
G1 F1200 X99.205 Y102.939 E45.37782
G0 F6000 X99.205 Y103.561
G1 F1200 X100.793 Y105.149 E45.45998
G0 F6000 X100.793 Y105.771
G1 F1200 X99.205 Y104.183 E45.54214
G0 F6000 X99.205 Y104.805
G1 F1200 X100.793 Y106.394 E45.62433
G0 F6000 X100.793 Y107.016
G1 F1200 X99.205 Y105.428 E45.7065
G0 F6000 X99.205 Y106.05
G1 F1200 X100.793 Y107.638 E45.78866
G0 F6000 X100.793 Y108.26
G1 F1200 X99.205 Y106.672 E45.87083
G0 F6000 X99.205 Y107.294
G1 F1200 X100.793 Y108.883 E45.95302
G0 F6000 X100.793 Y109.505
G1 F1200 X99.205 Y107.917 E46.03518
G0 F6000 X99.205 Y108.539
G1 F1200 X100.793 Y110.127 E46.11734
G0 F6000 X100.793 Y110.749
G1 F1200 X99.205 Y109.161 E46.19951
G0 F6000 X99.205 Y109.783
G1 F1200 X100.793 Y111.372 E46.2817
G0 F6000 X100.793 Y111.994
G1 F1200 X99.205 Y110.406 E46.36386
G0 F6000 X99.205 Y111.028
G1 F1200 X100.793 Y112.616 E46.44603
G0 F6000 X100.793 Y113.238
G1 F1200 X99.205 Y111.65 E46.52819
G0 F6000 X99.205 Y112.273
G1 F1200 X100.793 Y113.861 E46.61035
G0 F6000 X100.793 Y114.483
G1 F1200 X99.205 Y112.895 E46.69252
G0 F6000 X99.205 Y113.517
G1 F1200 X100.793 Y115.105 E46.77468
G0 F6000 X100.793 Y115.727
G1 F1200 X99.205 Y114.139 E46.85685
G0 F6000 X99.205 Y114.762
G1 F1200 X100.793 Y116.35 E46.93901
G0 F6000 X100.793 Y116.972
G1 F1200 X99.205 Y115.384 E47.02118
G0 F6000 X99.205 Y116.006
G1 F1200 X100.793 Y117.594 E47.10334
G0 F6000 X100.793 Y118.216
G1 F1200 X99.205 Y116.628 E47.1855
G1 F2700 E42.1855
G0 F6000 X96.835 Y116.628
G0 X96.847 Y96.847
G0 X118.495 Y96.835
G0 X118.495 Y99.205
G1 F2700 E47.1855
G1 F1200 X120.793 Y101.503 E47.3044
G0 F6000 X120.793 Y100.881
G1 F1200 X119.117 Y99.205 E47.39112
G0 F6000 X119.74 Y99.205
G1 F1200 X120.793 Y100.259 E47.44563
G0 F6000 X120.793 Y99.637
G1 F1200 X120.362 Y99.205 E47.46796
G1 F2700 E42.46796
;MESH:NONMESH
G0 F600 X120.362 Y99.205 Z0.4
G0 F6000 X120.362 Y96.835
G0 X120.301 Y96.905
G0 X114.98 Y103.093
G0 X103.153 Y116.847
G0 X101.4 Y118.6
;TIME_ELAPSED:84.470928
;LAYER:1
M140 S60
M106 S85
;TYPE:WALL-INNER
;MESH:ggggggggggg v0.stl
G1 F2700 E47.46796
