;FLAVOR:Marlin
;TIME:3120
;Filament used: 2.02497m
;Layer height: 0.2
;MINX:81.34
;MINY:81.34
;MINZ:0.2
;MAXX:138.66
;MAXY:138.66
;MAXZ:7
;Generated with Cura_SteamEngine 4.2.1
M140 S60
M105
M190 S60
M104 S200
M105
M109 S200
M82 ;absolute extrusion mode
M201 X500.00 Y500.00 Z100.00 E5000.00 ;Setup machine max acceleration
M203 X500.00 Y500.00 Z10.00 E50.00 ;Setup machine max feedrate
M204 P500.00 R1000.00 T500.00 ;Setup Print/Retract/Travel acceleration
M205 X8.00 Y8.00 Z0.40 E5.00 ;Setup Jerk
M220 S100 ;Reset Feedrate
M221 S100 ;Reset Flowrate

G28 ;Home

G92 E0 ;Reset Extruder
G1 Z2.0 F3000 ;Move Z Axis up
G1 X10.1 Y20 Z0.28 F5000.0 ;Move to start position
G1 X10.1 Y200.0 Z0.28 F1500.0 E15 ;Draw the first line
G1 X10.4 Y200.0 Z0.28 F5000.0 ;Move to side a little
G1 X10.4 Y20 Z0.28 F1500.0 E30 ;Draw the second line
G92 E0 ;Reset Extruder
G1 Z2.0 F3000 ;Move Z Axis up

G92 E0
G92 E0
G1 F2700 E-5
;LAYER_COUNT:35
;LAYER:0
M107
G0 F6000 X82.338 Y82.506 Z0.2
;TYPE:SKIRT
G1 F2700 E0
G1 F1200 X82.736 Y82.14 E0.01978
G1 X83.184 Y81.837 E0.03957
G1 X83.671 Y81.602 E0.05935
G1 X84.188 Y81.442 E0.07915
G1 X84.906 Y81.35 E0.10564
G1 X85.227 Y81.341 E0.11739
G1 X85.33 Y81.34 E0.12115
G1 X134.345 Y81.34 E1.91442
G1 X135.043 Y81.35 E1.93996
G1 X135.582 Y81.398 E1.95976
G1 X136.108 Y81.525 E1.97956
G1 X136.609 Y81.727 E1.99932
G1 X137.075 Y82.001 E2.0191
G1 X137.496 Y82.341 E2.0389
G1 X137.862 Y82.739 E2.05868
G1 X138.165 Y83.187 E2.07847
G1 X138.399 Y83.675 E2.09827
G1 X138.558 Y84.191 E2.11802
G1 X138.65 Y84.907 E2.14443
G1 X138.659 Y85.227 E2.15615
G1 X138.66 Y85.33 E2.15992
G1 X138.66 Y134.309 E3.95187
G1 X138.651 Y135.036 E3.97847
G1 X138.604 Y135.575 E3.99826
G1 X138.479 Y136.101 E4.01804
G1 X138.277 Y136.603 E4.03784
G1 X138.004 Y137.069 E4.0576
G1 X137.665 Y137.491 E4.0774
G1 X137.267 Y137.857 E4.09719
G1 X136.82 Y138.161 E4.11696
G1 X136.333 Y138.396 E4.13675
G1 X135.817 Y138.557 E4.15652
G1 X135.094 Y138.65 E4.18319
G1 X134.773 Y138.659 E4.19494
G1 X134.67 Y138.66 E4.19871
G1 X85.66 Y138.66 E5.9918
G1 X84.962 Y138.651 E6.01734
G1 X84.423 Y138.604 E6.03713
G1 X83.897 Y138.478 E6.05692
G1 X83.396 Y138.276 E6.07668
G1 X82.929 Y138.003 E6.09648
G1 X82.508 Y137.663 E6.11627
G1 X82.142 Y137.266 E6.13603
G1 X81.838 Y136.818 E6.15584
G1 X81.603 Y136.331 E6.17562
G1 X81.443 Y135.815 E6.19539
G1 X81.35 Y135.09 E6.22213
G1 X81.341 Y134.757 E6.23432
G1 X81.34 Y134.658 E6.23794
G1 X81.34 Y85.624 E8.0319
G1 X81.349 Y84.959 E8.05624
G1 X81.397 Y84.421 E8.076
G1 X81.523 Y83.895 E8.09579
G1 X81.725 Y83.393 E8.11558
G1 X81.999 Y82.927 E8.13536
G1 X82.338 Y82.506 E8.15514
G0 F6000 X82.77 Y82.695
G1 F1200 X83.161 Y82.372 E8.17369
G1 X83.598 Y82.115 E8.19224
G1 X84.07 Y81.929 E8.2108
G1 X84.565 Y81.82 E8.22934
G1 X84.919 Y81.79 E8.24234
G1 X85.24 Y81.781 E8.25409
G1 X85.33 Y81.78 E8.25738
G1 X134.339 Y81.78 E10.05043
G1 X135.037 Y81.79 E10.07597
G1 X135.542 Y81.838 E10.09453
G1 X136.033 Y81.963 E10.11307
G1 X136.499 Y82.165 E10.13165
G1 X136.927 Y82.437 E10.15021
G1 X137.307 Y82.773 E10.16876
G1 X137.629 Y83.164 E10.1873
G1 X137.886 Y83.601 E10.20584
G1 X138.072 Y84.073 E10.2244
G1 X138.181 Y84.569 E10.24298
G1 X138.21 Y84.919 E10.25583
G1 X138.219 Y85.239 E10.26755
G1 X138.22 Y85.33 E10.27088
G1 X138.22 Y134.304 E12.06265
G1 X138.211 Y135.031 E12.08925
G1 X138.165 Y135.536 E12.1078
G1 X138.04 Y136.027 E12.12633
G1 X137.839 Y136.493 E12.1449
G1 X137.568 Y136.922 E12.16347
G1 X137.233 Y137.302 E12.182
G1 X136.842 Y137.626 E12.20058
G1 X136.405 Y137.884 E12.21915
G1 X135.934 Y138.07 E12.23767
G1 X135.439 Y138.18 E12.25622
G1 X135.081 Y138.21 E12.26937
G1 X134.76 Y138.219 E12.28112
G1 X134.67 Y138.22 E12.28441
G1 X85.665 Y138.22 E14.07731
G1 X84.967 Y138.211 E14.10285
G1 X84.462 Y138.164 E14.12141
G1 X83.971 Y138.039 E14.13995
G1 X83.505 Y137.838 E14.15851
G1 X83.077 Y137.567 E14.17705
G1 X82.696 Y137.232 E14.19561
G1 X82.373 Y136.841 E14.21416
G1 X82.116 Y136.404 E14.23271
G1 X81.93 Y135.932 E14.25127
G1 X81.82 Y135.437 E14.26983
G1 X81.79 Y135.078 E14.28301
G1 X81.781 Y134.745 E14.29519
G1 X81.78 Y134.658 E14.29838
G1 X81.78 Y85.63 E16.09212
G1 X81.789 Y84.965 E16.11645
G1 X81.836 Y84.46 E16.13501
G1 X81.962 Y83.969 E16.15356
G1 X82.163 Y83.503 E16.17212
G1 X82.434 Y83.075 E16.19066
G1 X82.77 Y82.695 E16.20922
G1 F2700 E11.20922
;MESH:For Cura STL v3.stl
G0 F6000 X84.374 Y92.185
G0 X90.617 Y129.136
G0 X90.626 Y129.199
G0 X90.653 Y129.347
G0 X88.9 Y131.1
;TYPE:WALL-INNER
G1 F2700 E16.20922
G1 F1200 X131.1 Y131.1 E17.75315
G1 X131.1 Y88.9 E19.29709
G1 X88.9 Y88.9 E20.84102
G1 X88.9 Y131.1 E22.38496
G0 F6000 X86.1 Y133.9
G1 F1200 X86.1 Y86.1 E24.13378
G1 X133.9 Y86.1 E25.88259
G1 X133.9 Y133.9 E27.63141
G1 X86.1 Y133.9 E29.38023
G0 F6000 X85.66 Y134.34
G1 F1200 X85.66 Y85.66 E31.16124
G1 X134.34 Y85.66 E32.94226
G1 X134.34 Y134.34 E34.72327
G1 X85.66 Y134.34 E36.50428
G1 F2700 E31.50428
G0 F6000 X84.335 Y134.34
G0 X84.406 Y134.283
G0 X90.594 Y129.392
G0 X90.653 Y129.347
G0 X89.34 Y130.66
G1 F2700 E36.50428
G1 F1200 X130.66 Y130.66 E38.01602
G1 X130.66 Y89.34 E39.52776
G1 X89.34 Y89.34 E41.0395
G1 X89.34 Y130.66 E42.55124
G0 F6000 X89.78 Y130.22
;TYPE:WALL-OUTER
G1 F1200 X130.22 Y130.22 E44.03079
G1 X130.22 Y89.78 E45.51033
G1 X89.78 Y89.78 E46.98987
G1 X89.78 Y130.22 E48.46942
G1 F2700 E43.46942
G0 F6000 X90.653 Y129.347
G0 X90.594 Y129.396
G0 X84.404 Y134.718
G0 X84.335 Y134.78
G0 X85.22 Y134.78
G1 F2700 E48.46942
G1 F1200 X85.22 Y85.22 E50.28263
G1 X134.78 Y85.22 E52.09584
G1 X134.78 Y134.78 E53.90905
G1 X85.22 Y134.78 E55.72226
G0 F6000 X86.53 Y133.47
;TYPE:SKIN
G1 F1200 X86.53 Y86.53 E57.43961
G1 X133.47 Y86.53 E59.15696
G1 X133.47 Y133.47 E60.87432
G1 X86.53 Y133.47 E62.59167
G0 F6000 X88.47 Y131.53
G1 F1200 X131.53 Y131.53 E64.16707
G1 X131.53 Y88.47 E65.74247
G1 X88.47 Y88.47 E67.31787
G1 X88.47 Y131.53 E68.89327
G0 F6000 X87.246 Y133.293
G1 F1200 X86.705 Y132.752 E68.92126
G0 F6000 X86.705 Y132.129
G1 F1200 X87.868 Y133.293 E68.98146
G0 F6000 X88.49 Y133.293
G1 F1200 X86.705 Y131.507 E69.07384
G0 F6000 X86.705 Y130.885
G1 F1200 X89.113 Y133.293 E69.19844
G0 F6000 X89.735 Y133.293
G1 F1200 X86.705 Y130.263 E69.35521
G0 F6000 X86.705 Y129.64
G1 F1200 X88.294 Y131.229 E69.43743
G0 F6000 X88.294 Y130.607
G1 F1200 X86.705 Y129.018 E69.51964
G0 F6000 X86.705 Y128.396
G1 F1200 X88.294 Y129.985 E69.60186
G0 F6000 X88.294 Y129.363
G1 F1200 X86.705 Y127.774 E69.68407
G0 F6000 X86.705 Y127.151
G1 F1200 X88.294 Y128.74 E69.76629
G0 F6000 X88.294 Y128.118
G1 F1200 X86.705 Y126.529 E69.8485
G0 F6000 X86.705 Y125.907
G1 F1200 X88.294 Y127.496 E69.93072
G0 F6000 X88.294 Y126.874
G1 F1200 X86.705 Y125.285 E70.01294
G0 F6000 X86.705 Y124.662
G1 F1200 X88.294 Y126.251 E70.09515
G0 F6000 X88.294 Y125.629
G1 F1200 X86.705 Y124.04 E70.17737
G0 F6000 X86.705 Y123.418
G1 F1200 X88.294 Y125.007 E70.25958
G0 F6000 X88.294 Y124.385
G1 F1200 X86.705 Y122.796 E70.3418
G0 F6000 X86.705 Y122.173
G1 F1200 X88.294 Y123.762 E70.42402
G0 F6000 X88.294 Y123.14
G1 F1200 X86.705 Y121.551 E70.50623
G0 F6000 X86.705 Y120.929
G1 F1200 X88.294 Y122.518 E70.58845
G0 F6000 X88.294 Y121.896
G1 F1200 X86.705 Y120.307 E70.67066
G0 F6000 X86.705 Y119.684
G1 F1200 X88.294 Y121.273 E70.75288
G0 F6000 X88.294 Y120.651
G1 F1200 X86.705 Y119.062 E70.83509
G0 F6000 X86.705 Y118.44
G1 F1200 X88.294 Y120.029 E70.91731
G0 F6000 X88.294 Y119.407
G1 F1200 X86.705 Y117.818 E70.99953
G0 F6000 X86.705 Y117.195
G1 F1200 X88.294 Y118.784 E71.08174
G0 F6000 X88.294 Y118.162
G1 F1200 X86.705 Y116.573 E71.16396
G0 F6000 X86.705 Y115.951
G1 F1200 X88.294 Y117.54 E71.24617
G0 F6000 X88.294 Y116.917
G1 F1200 X86.705 Y115.329 E71.32836
G0 F6000 X86.705 Y114.706
G1 F1200 X88.294 Y116.295 E71.41058
G0 F6000 X88.294 Y115.673
G1 F1200 X86.705 Y114.084 E71.4928
G0 F6000 X86.705 Y113.462
G1 F1200 X88.294 Y115.051 E71.57501
G0 F6000 X88.294 Y114.428
G1 F1200 X86.705 Y112.84 E71.6572
G0 F6000 X86.705 Y112.217
G1 F1200 X88.294 Y113.806 E71.73942
G0 F6000 X88.294 Y113.184
G1 F1200 X86.705 Y111.595 E71.82163
G0 F6000 X86.705 Y110.973
G1 F1200 X88.294 Y112.562 E71.90385
G0 F6000 X88.294 Y111.939
G1 F1200 X86.705 Y110.351 E71.98604
G0 F6000 X86.705 Y109.728
G1 F1200 X88.294 Y111.317 E72.06826
G0 F6000 X88.294 Y110.695
G1 F1200 X86.705 Y109.106 E72.15047
G0 F6000 X86.705 Y108.484
G1 F1200 X88.294 Y110.073 E72.23269
G0 F6000 X88.294 Y109.45
G1 F1200 X86.705 Y107.862 E72.31488
G0 F6000 X86.705 Y107.239
G1 F1200 X88.294 Y108.828 E72.39709
G0 F6000 X88.294 Y108.206
G1 F1200 X86.705 Y106.617 E72.47931
G0 F6000 X86.705 Y105.995
G1 F1200 X88.294 Y107.584 E72.56152
G0 F6000 X88.294 Y106.961
G1 F1200 X86.705 Y105.373 E72.64371
G0 F6000 X86.705 Y104.75
G1 F1200 X88.294 Y106.339 E72.72593
G0 F6000 X88.294 Y105.717
G1 F1200 X86.705 Y104.128 E72.80815
G0 F6000 X86.705 Y103.506
G1 F1200 X88.294 Y105.095 E72.89036
G0 F6000 X88.294 Y104.472
G1 F1200 X86.705 Y102.884 E72.97255
G0 F6000 X86.705 Y102.261
G1 F1200 X88.294 Y103.85 E73.05477
G0 F6000 X88.294 Y103.228
G1 F1200 X86.705 Y101.639 E73.13698
G0 F6000 X86.705 Y101.017
G1 F1200 X88.294 Y102.606 E73.2192
G0 F6000 X88.294 Y101.983
G1 F1200 X86.705 Y100.395 E73.30139
G0 F6000 X86.705 Y99.772
G1 F1200 X88.294 Y101.361 E73.38361
G0 F6000 X88.294 Y100.739
G1 F1200 X86.705 Y99.15 E73.46582
G0 F6000 X86.705 Y98.528
G1 F1200 X88.294 Y100.117 E73.54804
G0 F6000 X88.294 Y99.494
G1 F1200 X86.705 Y97.906 E73.63023
G0 F6000 X86.705 Y97.283
G1 F1200 X88.294 Y98.872 E73.71244
G0 F6000 X88.294 Y98.25
G1 F1200 X86.705 Y96.661 E73.79466
G0 F6000 X86.705 Y96.039
G1 F1200 X88.294 Y97.628 E73.87687
G0 F6000 X88.294 Y97.005
G1 F1200 X86.705 Y95.416 E73.95909
G0 F6000 X86.705 Y94.794
G1 F1200 X88.294 Y96.383 E74.04131
G0 F6000 X88.294 Y95.761
G1 F1200 X86.705 Y94.172 E74.12352
G0 F6000 X86.705 Y93.55
G1 F1200 X88.294 Y95.139 E74.20574
G0 F6000 X88.294 Y94.516
G1 F1200 X86.705 Y92.927 E74.28795
G0 F6000 X86.705 Y92.305
G1 F1200 X88.294 Y93.894 E74.37017
G0 F6000 X88.294 Y93.272
G1 F1200 X86.705 Y91.683 E74.45239
G0 F6000 X86.705 Y91.061
G1 F1200 X88.294 Y92.65 E74.5346
G0 F6000 X88.294 Y92.027
G1 F1200 X86.705 Y90.438 E74.61682
G0 F6000 X86.705 Y89.816
G1 F1200 X88.294 Y91.405 E74.69903
G0 F6000 X88.294 Y90.783
G1 F1200 X86.705 Y89.194 E74.78125
G0 F6000 X86.705 Y88.572
G1 F1200 X88.294 Y90.161 E74.86347
G0 F6000 X88.294 Y89.538
G1 F1200 X86.705 Y87.949 E74.94568
G0 F6000 X86.705 Y87.327
G1 F1200 X88.294 Y88.916 E75.0279
G0 F6000 X88.293 Y88.293
G1 F1200 X86.705 Y86.705 E75.11006
G0 F6000 X87.328 Y86.706
G1 F1200 X88.915 Y88.293 E75.19217
G0 F6000 X89.538 Y88.293
G1 F1200 X87.95 Y86.706 E75.27431
G0 F6000 X88.572 Y86.706
G1 F1200 X90.16 Y88.293 E75.35645
G0 F6000 X90.782 Y88.293
G1 F1200 X89.195 Y86.706 E75.43856
G0 F6000 X89.817 Y86.706
G1 F1200 X91.404 Y88.293 E75.52067
G0 F6000 X92.027 Y88.293
G1 F1200 X90.439 Y86.706 E75.60281
G0 F6000 X91.061 Y86.706
G1 F1200 X92.649 Y88.293 E75.68495
G0 F6000 X93.271 Y88.293
G1 F1200 X91.684 Y86.706 E75.76706
G0 F6000 X92.306 Y86.706
G1 F1200 X93.893 Y88.293 E75.84918
G0 F6000 X94.516 Y88.293
G1 F1200 X92.928 Y86.706 E75.93131
G0 F6000 X93.55 Y86.706
G1 F1200 X95.138 Y88.293 E76.01345
G0 F6000 X95.76 Y88.293
G1 F1200 X94.173 Y86.706 E76.09556
G0 F6000 X94.795 Y86.706
G1 F1200 X96.382 Y88.293 E76.17768
G0 F6000 X97.005 Y88.293
G1 F1200 X95.417 Y86.706 E76.25982
G0 F6000 X96.039 Y86.706
G1 F1200 X97.627 Y88.293 E76.34195
G0 F6000 X98.249 Y88.293
G1 F1200 X96.662 Y86.706 E76.42407
G0 F6000 X97.284 Y86.706
G1 F1200 X98.871 Y88.293 E76.50618
G0 F6000 X99.494 Y88.293
G1 F1200 X97.906 Y86.706 E76.58832
G0 F6000 X98.528 Y86.706
G1 F1200 X100.116 Y88.293 E76.67045
G0 F6000 X100.738 Y88.293
G1 F1200 X99.151 Y86.706 E76.75257
G0 F6000 X99.773 Y86.706
G1 F1200 X101.36 Y88.293 E76.83468
G0 F6000 X101.983 Y88.293
G1 F1200 X100.395 Y86.706 E76.91682
G0 F6000 X101.017 Y86.706
G1 F1200 X102.605 Y88.293 E76.99896
G0 F6000 X103.227 Y88.293
G1 F1200 X101.64 Y86.706 E77.08107
G0 F6000 X102.262 Y86.706
G1 F1200 X103.849 Y88.293 E77.16318
G0 F6000 X104.472 Y88.293
G1 F1200 X102.884 Y86.706 E77.24532
G0 F6000 X103.506 Y86.706
G1 F1200 X105.094 Y88.293 E77.32746
G0 F6000 X105.716 Y88.293
G1 F1200 X104.129 Y86.706 E77.40957
G0 F6000 X104.751 Y86.706
G1 F1200 X106.338 Y88.293 E77.49168
G0 F6000 X106.961 Y88.293
G1 F1200 X105.373 Y86.706 E77.57382
G0 F6000 X105.996 Y86.706
G1 F1200 X107.583 Y88.293 E77.65593
G0 F6000 X108.205 Y88.293
G1 F1200 X106.618 Y86.706 E77.73804
G0 F6000 X107.24 Y86.706
G1 F1200 X108.827 Y88.293 E77.82016
G0 F6000 X109.45 Y88.293
G1 F1200 X107.862 Y86.706 E77.9023
G0 F6000 X108.485 Y86.706
G1 F1200 X110.072 Y88.293 E77.98441
G0 F6000 X110.694 Y88.293
G1 F1200 X109.107 Y86.706 E78.06652
G0 F6000 X109.729 Y86.706
G1 F1200 X111.316 Y88.293 E78.14863
G0 F6000 X111.939 Y88.293
G1 F1200 X110.351 Y86.706 E78.23077
G0 F6000 X110.974 Y86.706
G1 F1200 X112.561 Y88.293 E78.31288
G0 F6000 X113.183 Y88.293
G1 F1200 X111.596 Y86.706 E78.395
G0 F6000 X112.218 Y86.706
G1 F1200 X113.806 Y88.293 E78.47713
G0 F6000 X114.428 Y88.293
G1 F1200 X112.84 Y86.706 E78.55927
G0 F6000 X113.463 Y86.706
G1 F1200 X115.05 Y88.293 E78.64138
G0 F6000 X115.672 Y88.293
G1 F1200 X114.085 Y86.706 E78.7235
G0 F6000 X114.707 Y86.706
G1 F1200 X116.295 Y88.293 E78.80564
G0 F6000 X116.917 Y88.293
G1 F1200 X115.329 Y86.706 E78.88777
G0 F6000 X115.952 Y86.706
G1 F1200 X117.539 Y88.293 E78.96989
G0 F6000 X118.161 Y88.293
G1 F1200 X116.574 Y86.706 E79.052
G0 F6000 X117.196 Y86.706
G1 F1200 X118.784 Y88.293 E79.13414
G0 F6000 X119.406 Y88.293
G1 F1200 X117.818 Y86.706 E79.21627
G0 F6000 X118.441 Y86.706
G1 F1200 X120.028 Y88.293 E79.29839
G0 F6000 X120.65 Y88.293
G1 F1200 X119.063 Y86.706 E79.3805
G0 F6000 X119.685 Y86.706
G1 F1200 X121.273 Y88.293 E79.46264
G0 F6000 X121.895 Y88.293
G1 F1200 X120.307 Y86.706 E79.54478
G0 F6000 X120.93 Y86.706
G1 F1200 X122.517 Y88.293 E79.62689
G0 F6000 X123.139 Y88.293
G1 F1200 X121.552 Y86.706 E79.709
G0 F6000 X122.174 Y86.706
G1 F1200 X123.762 Y88.293 E79.79114
G0 F6000 X124.384 Y88.293
G1 F1200 X122.796 Y86.706 E79.87328
G0 F6000 X123.419 Y86.706
G1 F1200 X125.006 Y88.293 E79.95539
G0 F6000 X125.628 Y88.293
G1 F1200 X124.041 Y86.706 E80.0375
G0 F6000 X124.663 Y86.706
G1 F1200 X126.251 Y88.293 E80.11964
G0 F6000 X126.873 Y88.293
G1 F1200 X125.285 Y86.706 E80.20178
G0 F6000 X125.908 Y86.706
G1 F1200 X127.495 Y88.293 E80.28389
G0 F6000 X128.117 Y88.293
G1 F1200 X126.53 Y86.706 E80.366
G0 F6000 X127.152 Y86.706
G1 F1200 X128.74 Y88.293 E80.44814
G0 F6000 X129.362 Y88.293
G1 F1200 X127.774 Y86.706 E80.53028
G0 F6000 X128.397 Y86.706
G1 F1200 X129.984 Y88.293 E80.61239
G0 F6000 X130.606 Y88.293
G1 F1200 X129.019 Y86.706 E80.6945
G0 F6000 X129.641 Y86.706
G1 F1200 X131.229 Y88.293 E80.77664
G0 F6000 X131.705 Y88.769
G1 F1200 X133.293 Y90.358 E80.85883
G0 F6000 X133.293 Y89.736
G1 F1200 X130.263 Y86.706 E81.01561
G0 F6000 X130.886 Y86.706
G1 F1200 X133.293 Y89.113 E81.14015
G0 F6000 X133.293 Y88.491
G1 F1200 X131.508 Y86.706 E81.2325
G0 F6000 X132.13 Y86.706
G1 F1200 X133.293 Y87.869 E81.29268
G0 F6000 X133.293 Y87.247
G1 F1200 X132.752 Y86.706 E81.32067
G0 F6000 X131.705 Y89.391
G1 F1200 X133.293 Y90.98 E81.40286
G0 F6000 X133.293 Y91.602
G1 F1200 X131.705 Y90.013 E81.48505
G0 F6000 X131.705 Y90.636
G1 F1200 X133.293 Y92.225 E81.56724
G0 F6000 X133.293 Y92.847
G1 F1200 X131.705 Y91.258 E81.64943
G0 F6000 X131.705 Y91.88
G1 F1200 X133.293 Y93.469 E81.73162
G0 F6000 X133.293 Y94.091
G1 F1200 X131.705 Y92.503 E81.81378
G0 F6000 X131.705 Y93.125
G1 F1200 X133.293 Y94.714 E81.89597
G0 F6000 X133.293 Y95.336
G1 F1200 X131.705 Y93.747 E81.97816
G0 F6000 X131.705 Y94.369
G1 F1200 X133.293 Y95.958 E82.06035
G0 F6000 X133.293 Y96.58
G1 F1200 X131.705 Y94.992 E82.14252
G0 F6000 X131.705 Y95.614
G1 F1200 X133.293 Y97.203 E82.22471
G0 F6000 X133.293 Y97.825
G1 F1200 X131.705 Y96.236 E82.3069
G0 F6000 X131.705 Y96.858
G1 F1200 X133.293 Y98.447 E82.38909
G0 F6000 X133.293 Y99.069
G1 F1200 X131.705 Y97.481 E82.47125
G0 F6000 X131.705 Y98.103
G1 F1200 X133.293 Y99.692 E82.55344
G0 F6000 X133.293 Y100.314
G1 F1200 X131.705 Y98.725 E82.63563
G0 F6000 X131.705 Y99.347
